X:3
T:Hotchpotch polka
C:Andy Hornby  1995
I:abc2nwc
M:2/4
L:1/16
K:G
EFGA B2^d2|e4e3B|c2BA B2G2|A2F2 B2G2|EFGA B2^d2|
[1e4e3f|g2fe B2^d2|e4e4:|[2e2f2 g2b2|agfe B2^d2|e4e2f2
[|g3f g2e2|fgfe ^d2B2|c3B c2e2|B6B2|
A3G A2F2|GAGF E2G2|F2E2 ^D2E2|F4F4||
^d2de f2d2|e2ef g2e2|^d3e f2d2|e6B2|
cdcB A2c2|B2A2 G2E2|g2f2 e2^d2|e4e4|]
%%vskip 2.5cm
